X: 5339
T: Brureslag
R: barndance
M: 4/4
K: Dminor
FE F2|:D4 FE F2|A,4 FE F2|D4 DEFG|A4 d4|c2 A2 =BA G2|F4 D2 EF
[1 G2 A2 c2 =B2|A2 G2 =BA G2|A4 A3 A|A4 FE F2:|2 G2 A=B A2 F2|D2 EF ED C2|D4 D3 D|D8||
|:d4 d2 cd|e2 d2 A4|d4 d2 cd|[M:6/4] e2 d2 dc B2 A2 G2|[M:4/4] F4 FE F2|
E4 EDEF|G2 A2 c2 =B2|A2 G2 =BA G2|A4 A3 A|A8:|

